picto/bus-left.svg

<svg class="color-immutable" width="24" height="24" viewBox="0 0 24 24" fill="none" xmlns="http://www.w3.org/2000/svg"><g clip-path="url(#a)"><path d="M0 22.5v-21C0 .675.675 0 1.5 0h21c.825 0 1.5.675 1.5 1.5v21c0 .825-.675 1.5-1.5 1.5h-21C.675 24 0 23.325 0 22.5Z" fill="#2D327D"/><path d="M17.625 8.25H21V7.5H5.926a1.35 1.35 0 0 0-1.304 1l-1.576 5.869a1.335 1.335 0 0 0-.046.35v3.806a.6.6 0 0 0 .6.6h6.976a.6.6 0 0 0 .6-.6v-.011l-.001-.064a3.452 3.452 0 0 1 3.45-3.45 3.452 3.452 0 0 1 3.45 3.45l-.001.064v.011a.6.6 0 0 0 .6.6H21V13.5h-3.375a.375.375 0 0 1-.375-.375v-4.5c0-.207.168-.375.375-.375ZM6.562 14.625a.374.374 0 0 1-.375.375H4.142a.375.375 0 0 1-.362-.472L5.366 8.62a.6.6 0 0 1 .58-.444h.017a.6.6 0 0 1 .6.6v5.849h-.001Zm1.95-.15a.6.6 0 0 1-1.2 0v-5.7a.6.6 0 0 1 1.2 0v5.7Zm1.951 0a.6.6 0 0 1-1.2 0v-5.7a.6.6 0 0 1 1.2 0v5.7Zm6.037-1.35a.375.375 0 0 1-.375.375h-4.537a.375.375 0 0 1-.375-.375v-4.5c0-.207.168-.375.375-.375h4.537c.207 0 .375.168.375.375v4.5Z" fill="#fff"/><path d="M14.648 15.847a2.626 2.626 0 0 0 0 5.25 2.626 2.626 0 0 0 0-5.25Zm0 4.069a1.5 1.5 0 1 1 .001-3.001 1.5 1.5 0 0 1-.001 3.001Z" fill="#fff"/></g><defs><clipPath id="a"><path fill="#fff" d="M0 0h24v24H0z"/></clipPath></defs></svg>

<svg class="color-immutable" width="24" height="24" viewBox="0 0 24 24" fill="none" xmlns="http://www.w3.org/2000/svg"><path d="M0 22.5V1.5C0 0.675 0.675 0 1.5 0H22.5C23.325 0 24 0.675 24 1.5V22.5C24 23.325 23.325 24 22.5 24H1.5C0.675 24 0 23.325 0 22.5Z" fill="#2D327D"/><path d="M17.625 8.25H21V7.5H5.926C5.315 7.5 4.781 7.91 4.622 8.5L3.046 14.369C3.015 14.483 3 14.601 3 14.719V18.525C3 18.856 3.269 19.125 3.6 19.125H10.576C10.907 19.125 11.176 18.856 11.176 18.525C11.176 18.521 11.176 18.518 11.176 18.514C11.175 18.493 11.175 18.471 11.175 18.45C11.175 16.546 12.721 15 14.625 15C16.529 15 18.075 16.546 18.075 18.45C18.075 18.471 18.075 18.493 18.074 18.514C18.074 18.518 18.074 18.521 18.074 18.525C18.074 18.856 18.343 19.125 18.674 19.125H21V13.5H17.625C17.418 13.5 17.25 13.332 17.25 13.125V8.625C17.25 8.418 17.418 8.25 17.625 8.25ZM6.562 14.625C6.562 14.832 6.395 15 6.187 15H4.142C3.935 15 3.767 14.832 3.767 14.625C3.767 14.592 3.771 14.559 3.78 14.528L5.366 8.62C5.436 8.358 5.674 8.176 5.946 8.176H5.963C6.294 8.176 6.563 8.445 6.563 8.776V14.625H6.562ZM8.512 14.475C8.512 14.806 8.243 15.075 7.912 15.075C7.581 15.075 7.312 14.806 7.312 14.475V8.775C7.312 8.444 7.581 8.175 7.912 8.175C8.243 8.175 8.512 8.444 8.512 8.775V14.475ZM10.463 14.475C10.463 14.806 10.194 15.075 9.863 15.075C9.532 15.075 9.263 14.806 9.263 14.475V8.775C9.263 8.444 9.532 8.175 9.863 8.175C10.194 8.175 10.463 8.444 10.463 8.775V14.475ZM16.5 13.125C16.5 13.332 16.332 13.5 16.125 13.5H11.588C11.381 13.5 11.213 13.332 11.213 13.125V8.625C11.213 8.418 11.381 8.25 11.588 8.25H16.125C16.332 8.25 16.5 8.418 16.5 8.625V13.125Z" fill="white"/><path d="M14.648 15.847C13.199 15.847 12.023 17.023 12.023 18.472C12.023 19.921 13.199 21.097 14.648 21.097C16.097 21.097 17.273 19.921 17.273 18.472C17.273 17.023 16.097 15.847 14.648 15.847ZM14.648 19.916C13.82 19.916 13.148 19.244 13.148 18.416C13.148 17.588 13.82 16.916 14.648 16.916C15.476 16.916 16.148 17.588 16.148 18.416C16.148 19.244 15.476 19.916 14.648 19.916Z" fill="white"/></svg>
